shader_type sky;

void sky() {
    if (AT_CUBEMAP_PASS) {
        vec3 dir = EYEDIR;

        vec4 col = vec4(0.0);

        // Complex color calculation

        COLOR = col.xyz;
        ALPHA = 1.0;
    } else {
        COLOR = texture(RADIANCE, EYEDIR).rgb;
    }
}